images/Chk1N61.svg

<?xml version="1.0" encoding="UTF-8"?>
<svg xmlns="http://www.w3.org/2000/svg" xmlns:xlink="http://www.w3.org/1999/xlink" width="300pt" height="300pt" viewBox="0 0 300 300" version="1.1">
<defs>
<g>
<symbol overflow="visible" id="glyph0-0">
<path style="stroke:none;" d="M 0.453125 1.59375 L 0.453125 -6.34375 L 4.953125 -6.34375 L 4.953125 1.59375 Z M 0.953125 1.09375 L 4.453125 1.09375 L 4.453125 -5.84375 L 0.953125 -5.84375 Z M 0.953125 1.09375 "/>
</symbol>
<symbol overflow="visible" id="glyph0-1">
<path style="stroke:none;" d="M 3.546875 -5.953125 C 2.898438 -5.953125 2.382812 -5.710938 2 -5.234375 C 1.625 -4.753906 1.4375 -4.101562 1.4375 -3.28125 C 1.4375 -2.445312 1.625 -1.789062 2 -1.3125 C 2.382812 -0.832031 2.898438 -0.59375 3.546875 -0.59375 C 4.191406 -0.59375 4.703125 -0.832031 5.078125 -1.3125 C 5.453125 -1.789062 5.640625 -2.445312 5.640625 -3.28125 C 5.640625 -4.101562 5.453125 -4.753906 5.078125 -5.234375 C 4.703125 -5.710938 4.191406 -5.953125 3.546875 -5.953125 Z M 3.546875 -6.6875 C 4.460938 -6.6875 5.195312 -6.375 5.75 -5.75 C 6.300781 -5.132812 6.578125 -4.3125 6.578125 -3.28125 C 6.578125 -2.238281 6.300781 -1.410156 5.75 -0.796875 C 5.195312 -0.179688 4.460938 0.125 3.546875 0.125 C 2.617188 0.125 1.878906 -0.179688 1.328125 -0.796875 C 0.773438 -1.410156 0.5 -2.238281 0.5 -3.28125 C 0.5 -4.3125 0.773438 -5.132812 1.328125 -5.75 C 1.878906 -6.375 2.617188 -6.6875 3.546875 -6.6875 Z M 3.546875 -6.6875 "/>
</symbol>
<symbol overflow="visible" id="glyph0-2">
<path style="stroke:none;" d="M 0.890625 -6.5625 L 2.078125 -6.5625 L 4.984375 -1.078125 L 4.984375 -6.5625 L 5.84375 -6.5625 L 5.84375 0 L 4.65625 0 L 1.75 -5.484375 L 1.75 0 L 0.890625 0 Z M 0.890625 -6.5625 "/>
</symbol>
<symbol overflow="visible" id="glyph0-3">
<path style="stroke:none;" d="M 0.890625 -6.5625 L 1.765625 -6.5625 L 1.765625 -3.875 L 5 -3.875 L 5 -6.5625 L 5.890625 -6.5625 L 5.890625 0 L 5 0 L 5 -3.125 L 1.765625 -3.125 L 1.765625 0 L 0.890625 0 Z M 0.890625 -6.5625 "/>
</symbol>
</g>
</defs>
<g id="surface329">
<rect x="0" y="0" width="300" height="300" style="fill:rgb(100%,100%,100%);fill-opacity:1;stroke:none;"/>
<path style="fill:none;stroke-width:1.2;stroke-linecap:butt;stroke-linejoin:miter;stroke:rgb(0%,0%,0%);stroke-opacity:1;stroke-miterlimit:10;" d="M 35.25 118.261719 L 40.527344 127.078125 "/>
<path style="fill:none;stroke-width:1.2;stroke-linecap:butt;stroke-linejoin:miter;stroke:rgb(100%,0%,0%);stroke-opacity:1;stroke-miterlimit:10;" d="M 40.527344 127.078125 L 45.800781 135.894531 "/>
<path style="fill:none;stroke-width:1.2;stroke-linecap:butt;stroke-linejoin:miter;stroke:rgb(100%,0%,0%);stroke-opacity:1;stroke-miterlimit:10;" d="M 45.800781 135.894531 L 56.074219 135.734375 "/>
<path style="fill:none;stroke-width:1.2;stroke-linecap:butt;stroke-linejoin:miter;stroke:rgb(0%,0%,0%);stroke-opacity:1;stroke-miterlimit:10;" d="M 56.074219 135.734375 L 66.347656 135.574219 "/>
<path style=" stroke:none;fill-rule:nonzero;fill:rgb(100%,100%,100%);fill-opacity:1;" d="M 41.800781 130.394531 L 49.800781 130.394531 L 49.800781 141.394531 L 41.800781 141.394531 Z M 41.800781 130.394531 "/>
<g style="fill:rgb(100%,0%,0%);fill-opacity:1;">
  <use xlink:href="#glyph0-1" x="41.800781" y="139.057617"/>
</g>
<path style="fill:none;stroke-width:1.2;stroke-linecap:butt;stroke-linejoin:miter;stroke:rgb(0%,0%,0%);stroke-opacity:1;stroke-miterlimit:10;" d="M 68.460938 136.75 L 73.460938 127.773438 "/>
<path style="fill:none;stroke-width:1.2;stroke-linecap:butt;stroke-linejoin:miter;stroke:rgb(100%,0%,0%);stroke-opacity:1;stroke-miterlimit:10;" d="M 73.460938 127.773438 L 78.457031 118.796875 "/>
<path style="fill:none;stroke-width:1.2;stroke-linecap:butt;stroke-linejoin:miter;stroke:rgb(0%,0%,0%);stroke-opacity:1;stroke-miterlimit:10;" d="M 64.238281 134.398438 L 69.234375 125.421875 "/>
<path style="fill:none;stroke-width:1.2;stroke-linecap:butt;stroke-linejoin:miter;stroke:rgb(100%,0%,0%);stroke-opacity:1;stroke-miterlimit:10;" d="M 69.234375 125.421875 L 74.234375 116.441406 "/>
<path style="fill:none;stroke-width:1.2;stroke-linecap:butt;stroke-linejoin:miter;stroke:rgb(0%,0%,0%);stroke-opacity:1;stroke-miterlimit:10;" d="M 66.347656 135.574219 L 76.902344 153.210938 "/>
<path style=" stroke:none;fill-rule:nonzero;fill:rgb(100%,100%,100%);fill-opacity:1;" d="M 72.347656 112.121094 L 80.347656 112.121094 L 80.347656 123.121094 L 72.347656 123.121094 Z M 72.347656 112.121094 "/>
<g style="fill:rgb(100%,0%,0%);fill-opacity:1;">
  <use xlink:href="#glyph0-1" x="72.347656" y="120.78418"/>
</g>
<path style="fill:none;stroke-width:1.2;stroke-linecap:butt;stroke-linejoin:miter;stroke:rgb(0%,0%,0%);stroke-opacity:1;stroke-miterlimit:10;" d="M 76.902344 153.210938 L 97.449219 152.890625 "/>
<path style="fill:none;stroke-width:1.2;stroke-linecap:butt;stroke-linejoin:miter;stroke:rgb(0%,0%,0%);stroke-opacity:1;stroke-miterlimit:10;" d="M 97.449219 152.890625 L 107.445312 134.933594 "/>
<path style="fill:none;stroke-width:1.2;stroke-linecap:butt;stroke-linejoin:miter;stroke:rgb(0%,0%,0%);stroke-opacity:1;stroke-miterlimit:10;" d="M 102.671875 153.445312 L 110.671875 139.082031 "/>
<path style="fill:none;stroke-width:1.2;stroke-linecap:butt;stroke-linejoin:miter;stroke:rgb(0%,0%,0%);stroke-opacity:1;stroke-miterlimit:10;" d="M 108 170.523438 L 97.449219 152.890625 "/>
<path style="fill:none;stroke-width:1.2;stroke-linecap:butt;stroke-linejoin:miter;stroke:rgb(0%,0%,0%);stroke-opacity:1;stroke-miterlimit:10;" d="M 107.445312 134.933594 L 127.992188 134.613281 "/>
<path style="fill:none;stroke-width:1.2;stroke-linecap:butt;stroke-linejoin:miter;stroke:rgb(0%,0%,0%);stroke-opacity:1;stroke-miterlimit:10;" d="M 127.992188 134.613281 L 138.542969 152.25 "/>
<path style="fill:none;stroke-width:1.2;stroke-linecap:butt;stroke-linejoin:miter;stroke:rgb(0%,0%,0%);stroke-opacity:1;stroke-miterlimit:10;" d="M 124.898438 138.859375 L 133.339844 152.96875 "/>
<path style="fill:none;stroke-width:1.2;stroke-linecap:butt;stroke-linejoin:miter;stroke:rgb(0%,0%,0%);stroke-opacity:1;stroke-miterlimit:10;" d="M 138.542969 152.25 L 148.679688 150.558594 "/>
<path style="fill:none;stroke-width:1.2;stroke-linecap:butt;stroke-linejoin:miter;stroke:rgb(0%,0%,100%);stroke-opacity:1;stroke-miterlimit:10;" d="M 148.679688 150.558594 L 158.816406 148.867188 "/>
<path style="fill:none;stroke-width:1.2;stroke-linecap:butt;stroke-linejoin:miter;stroke:rgb(0%,0%,0%);stroke-opacity:1;stroke-miterlimit:10;" d="M 128.546875 170.203125 L 138.542969 152.25 "/>
<path style="fill:none;stroke-width:1.2;stroke-linecap:butt;stroke-linejoin:miter;stroke:rgb(0%,0%,100%);stroke-opacity:1;stroke-miterlimit:10;" d="M 158.816406 148.867188 L 166.457031 155.738281 "/>
<path style="fill:none;stroke-width:1.2;stroke-linecap:butt;stroke-linejoin:miter;stroke:rgb(0%,0%,0%);stroke-opacity:1;stroke-miterlimit:10;" d="M 166.457031 155.738281 L 174.097656 162.609375 "/>
<path style=" stroke:none;fill-rule:nonzero;fill:rgb(100%,100%,100%);fill-opacity:1;" d="M 151.816406 143.367188 L 165.816406 143.367188 L 165.816406 154.367188 L 151.816406 154.367188 Z M 151.816406 143.367188 "/>
<g style="fill:rgb(0%,0%,100%);fill-opacity:1;">
  <use xlink:href="#glyph0-2" x="151.816406" y="152.030273"/>
  <use xlink:href="#glyph0-3" x="158.793945" y="152.030273"/>
</g>
<path style="fill:none;stroke-width:1.2;stroke-linecap:butt;stroke-linejoin:miter;stroke:rgb(0%,0%,0%);stroke-opacity:1;stroke-miterlimit:10;" d="M 174.097656 162.609375 L 192.46875 153.40625 "/>
<path style="fill:none;stroke-width:1.2;stroke-linecap:butt;stroke-linejoin:miter;stroke:rgb(0%,0%,0%);stroke-opacity:1;stroke-miterlimit:10;" d="M 178.097656 166.011719 L 192.796875 158.648438 "/>
<path style="fill:none;stroke-width:1.2;stroke-linecap:butt;stroke-linejoin:miter;stroke:rgb(0%,0%,0%);stroke-opacity:1;stroke-miterlimit:10;" d="M 172.878906 183.125 L 174.097656 162.609375 "/>
<path style="fill:none;stroke-width:1.2;stroke-linecap:butt;stroke-linejoin:miter;stroke:rgb(0%,0%,0%);stroke-opacity:1;stroke-miterlimit:10;" d="M 192.46875 153.40625 L 209.628906 164.714844 "/>
<path style="fill:none;stroke-width:1.2;stroke-linecap:butt;stroke-linejoin:miter;stroke:rgb(0%,0%,0%);stroke-opacity:1;stroke-miterlimit:10;" d="M 209.628906 164.714844 L 208.410156 185.230469 "/>
<path style="fill:none;stroke-width:1.2;stroke-linecap:butt;stroke-linejoin:miter;stroke:rgb(0%,0%,0%);stroke-opacity:1;stroke-miterlimit:10;" d="M 204.679688 166.480469 L 203.707031 182.894531 "/>
<path style="fill:none;stroke-width:1.2;stroke-linecap:butt;stroke-linejoin:miter;stroke:rgb(0%,0%,0%);stroke-opacity:1;stroke-miterlimit:10;" d="M 209.628906 164.714844 L 228 155.511719 "/>
<path style="fill:none;stroke-width:1.2;stroke-linecap:butt;stroke-linejoin:miter;stroke:rgb(0%,0%,0%);stroke-opacity:1;stroke-miterlimit:10;" d="M 208.410156 185.230469 L 190.039062 194.433594 "/>
<path style="fill:none;stroke-width:1.2;stroke-linecap:butt;stroke-linejoin:miter;stroke:rgb(0%,0%,0%);stroke-opacity:1;stroke-miterlimit:10;" d="M 190.039062 194.433594 L 172.878906 183.125 "/>
<path style="fill:none;stroke-width:1.2;stroke-linecap:butt;stroke-linejoin:miter;stroke:rgb(0%,0%,0%);stroke-opacity:1;stroke-miterlimit:10;" d="M 190.984375 189.265625 L 177.257812 180.21875 "/>
<path style="fill:none;stroke-width:1.2;stroke-linecap:butt;stroke-linejoin:miter;stroke:rgb(0%,0%,0%);stroke-opacity:1;stroke-miterlimit:10;" d="M 172.878906 183.125 L 156.082031 194.964844 "/>
<path style="fill:none;stroke-width:1.2;stroke-linecap:butt;stroke-linejoin:miter;stroke:rgb(0%,0%,0%);stroke-opacity:1;stroke-miterlimit:10;" d="M 153.699219 195.363281 L 155.386719 205.496094 "/>
<path style="fill:none;stroke-width:1.2;stroke-linecap:butt;stroke-linejoin:miter;stroke:rgb(100%,0%,0%);stroke-opacity:1;stroke-miterlimit:10;" d="M 155.386719 205.496094 L 157.078125 215.632812 "/>
<path style="fill:none;stroke-width:1.2;stroke-linecap:butt;stroke-linejoin:miter;stroke:rgb(0%,0%,0%);stroke-opacity:1;stroke-miterlimit:10;" d="M 158.46875 194.566406 L 160.15625 204.703125 "/>
<path style="fill:none;stroke-width:1.2;stroke-linecap:butt;stroke-linejoin:miter;stroke:rgb(100%,0%,0%);stroke-opacity:1;stroke-miterlimit:10;" d="M 160.15625 204.703125 L 161.847656 214.835938 "/>
<path style="fill:none;stroke-width:1.2;stroke-linecap:butt;stroke-linejoin:miter;stroke:rgb(0%,0%,0%);stroke-opacity:1;stroke-miterlimit:10;" d="M 156.082031 194.964844 L 146.21875 192.089844 "/>
<path style="fill:none;stroke-width:1.2;stroke-linecap:butt;stroke-linejoin:miter;stroke:rgb(0%,0%,100%);stroke-opacity:1;stroke-miterlimit:10;" d="M 146.21875 192.089844 L 136.351562 189.214844 "/>
<path style=" stroke:none;fill-rule:nonzero;fill:rgb(100%,100%,100%);fill-opacity:1;" d="M 155.460938 209.734375 L 163.460938 209.734375 L 163.460938 220.734375 L 155.460938 220.734375 Z M 155.460938 209.734375 "/>
<g style="fill:rgb(100%,0%,0%);fill-opacity:1;">
  <use xlink:href="#glyph0-1" x="155.460938" y="218.397461"/>
</g>
<path style="fill:none;stroke-width:1.2;stroke-linecap:butt;stroke-linejoin:miter;stroke:rgb(0%,0%,100%);stroke-opacity:1;stroke-miterlimit:10;" d="M 136.351562 189.214844 L 132.449219 179.707031 "/>
<path style="fill:none;stroke-width:1.2;stroke-linecap:butt;stroke-linejoin:miter;stroke:rgb(0%,0%,0%);stroke-opacity:1;stroke-miterlimit:10;" d="M 132.449219 179.707031 L 128.546875 170.203125 "/>
<path style=" stroke:none;fill-rule:nonzero;fill:rgb(100%,100%,100%);fill-opacity:1;" d="M 129.351562 183.714844 L 143.351562 183.714844 L 143.351562 194.714844 L 129.351562 194.714844 Z M 129.351562 183.714844 "/>
<g style="fill:rgb(0%,0%,100%);fill-opacity:1;">
  <use xlink:href="#glyph0-2" x="129.351562" y="192.37793"/>
  <use xlink:href="#glyph0-3" x="136.329102" y="192.37793"/>
</g>
<path style="fill:none;stroke-width:1.2;stroke-linecap:butt;stroke-linejoin:miter;stroke:rgb(0%,0%,0%);stroke-opacity:1;stroke-miterlimit:10;" d="M 128.546875 170.203125 L 108 170.523438 "/>
<path style="fill:none;stroke-width:1.2;stroke-linecap:butt;stroke-linejoin:miter;stroke:rgb(0%,0%,0%);stroke-opacity:1;stroke-miterlimit:10;" d="M 126.417969 165.402344 L 109.980469 165.65625 "/>
<path style="fill:none;stroke-width:1.2;stroke-linecap:butt;stroke-linejoin:miter;stroke:rgb(0%,0%,0%);stroke-opacity:1;stroke-miterlimit:10;" d="M 228 155.511719 L 245.160156 166.824219 "/>
<path style="fill:none;stroke-width:1.2;stroke-linecap:butt;stroke-linejoin:miter;stroke:rgb(0%,0%,0%);stroke-opacity:1;stroke-miterlimit:10;" d="M 232.378906 152.605469 L 246.105469 161.65625 "/>
<path style="fill:none;stroke-width:1.2;stroke-linecap:butt;stroke-linejoin:miter;stroke:rgb(0%,0%,0%);stroke-opacity:1;stroke-miterlimit:10;" d="M 229.21875 134.996094 L 228 155.511719 "/>
<path style="fill:none;stroke-width:1.2;stroke-linecap:butt;stroke-linejoin:miter;stroke:rgb(0%,0%,0%);stroke-opacity:1;stroke-miterlimit:10;" d="M 245.160156 166.824219 L 263.535156 157.617188 "/>
<path style="fill:none;stroke-width:1.2;stroke-linecap:butt;stroke-linejoin:miter;stroke:rgb(0%,0%,0%);stroke-opacity:1;stroke-miterlimit:10;" d="M 263.535156 157.617188 L 264.75 137.105469 "/>
<path style="fill:none;stroke-width:1.2;stroke-linecap:butt;stroke-linejoin:miter;stroke:rgb(0%,0%,0%);stroke-opacity:1;stroke-miterlimit:10;" d="M 258.828125 155.28125 L 259.800781 138.871094 "/>
<path style="fill:none;stroke-width:1.2;stroke-linecap:butt;stroke-linejoin:miter;stroke:rgb(0%,0%,0%);stroke-opacity:1;stroke-miterlimit:10;" d="M 264.75 137.105469 L 247.59375 125.792969 "/>
<path style="fill:none;stroke-width:1.2;stroke-linecap:butt;stroke-linejoin:miter;stroke:rgb(0%,0%,0%);stroke-opacity:1;stroke-miterlimit:10;" d="M 247.59375 125.792969 L 229.21875 134.996094 "/>
<path style="fill:none;stroke-width:1.2;stroke-linecap:butt;stroke-linejoin:miter;stroke:rgb(0%,0%,0%);stroke-opacity:1;stroke-miterlimit:10;" d="M 247.921875 131.039062 L 233.222656 138.402344 "/>
<path style="fill:none;stroke-width:1.2;stroke-linecap:butt;stroke-linejoin:miter;stroke:rgb(0%,0%,0%);stroke-opacity:1;stroke-miterlimit:10;" d="M 247.59375 125.792969 L 248.808594 105.28125 "/>
<path style="fill:none;stroke-width:1.2;stroke-linecap:butt;stroke-linejoin:miter;stroke:rgb(0%,0%,0%);stroke-opacity:1;stroke-miterlimit:10;" d="M 248.808594 105.28125 L 249.417969 95.023438 "/>
<path style="fill:none;stroke-width:1.2;stroke-linecap:butt;stroke-linejoin:miter;stroke:rgb(0%,0%,100%);stroke-opacity:1;stroke-miterlimit:10;" d="M 249.417969 95.023438 L 250.023438 84.765625 "/>
<path style="fill:none;stroke-width:1.2;stroke-linecap:butt;stroke-linejoin:miter;stroke:rgb(0%,0%,0%);stroke-opacity:1;stroke-miterlimit:10;" d="M 253.757812 103.515625 L 254.242188 95.308594 "/>
<path style="fill:none;stroke-width:1.2;stroke-linecap:butt;stroke-linejoin:miter;stroke:rgb(0%,0%,100%);stroke-opacity:1;stroke-miterlimit:10;" d="M 254.242188 95.308594 L 254.730469 87.101562 "/>
<path style="fill:none;stroke-width:1.2;stroke-linecap:butt;stroke-linejoin:miter;stroke:rgb(0%,0%,0%);stroke-opacity:1;stroke-miterlimit:10;" d="M 244.101562 102.941406 L 244.589844 94.734375 "/>
<path style="fill:none;stroke-width:1.2;stroke-linecap:butt;stroke-linejoin:miter;stroke:rgb(0%,0%,100%);stroke-opacity:1;stroke-miterlimit:10;" d="M 244.589844 94.734375 L 245.074219 86.53125 "/>
<path style=" stroke:none;fill-rule:nonzero;fill:rgb(100%,100%,100%);fill-opacity:1;" d="M 247.023438 79.265625 L 254.023438 79.265625 L 254.023438 90.265625 L 247.023438 90.265625 Z M 247.023438 79.265625 "/>
<g style="fill:rgb(0%,0%,100%);fill-opacity:1;">
  <use xlink:href="#glyph0-2" x="247.023438" y="87.928711"/>
</g>
</g>
</svg>

<svg xmlns="http://www.w3.org/2000/svg" xmlns:xlink="http://www.w3.org/1999/xlink" width="300pt" height="300pt" viewBox="0 0 300 300"><defs><symbol overflow="visible"><path d="M.453 1.594v-7.938h4.5v7.938zm.5-.5h3.5v-6.938h-3.5zm0 0"/></symbol><symbol overflow="visible" id="a"><path d="M3.547-5.953c-.65 0-1.164.242-1.547.72-.375.48-.563 1.13-.563 1.952 0 .835.188 1.49.563 1.967.383.48.898.72 1.547.72.644 0 1.156-.24 1.53-.72.376-.476.564-1.132.564-1.968 0-.822-.187-1.474-.562-1.954-.375-.477-.887-.72-1.53-.72zm0-.734c.914 0 1.648.312 2.203.937.55.617.828 1.438.828 2.47 0 1.042-.277 1.87-.828 2.483-.555.617-1.29.922-2.203.922-.93 0-1.668-.305-2.22-.922C.774-1.41.5-2.237.5-3.28c0-1.033.273-1.853.828-2.47.55-.625 1.29-.938 2.22-.938zm0 0"/></symbol><symbol overflow="visible" id="b"><path d="M.89-6.563H2.08l2.906 5.485v-5.484h.86V0H4.656L1.75-5.484V0H.89zm0 0"/></symbol><symbol overflow="visible" id="c"><path d="M.89-6.563h.876v2.688H5v-2.688h.89V0H5v-3.125H1.766V0H.89zm0 0"/></symbol></defs><g><path fill="#fff" d="M0 0h300v300H0z"/><path d="M35.25 118.262l5.277 8.816" stroke-width="1.2" stroke="#000" stroke-miterlimit="10" fill="none"/><path d="M40.527 127.078l5.274 8.817M45.8 135.895l10.274-.16" stroke-width="1.2" stroke="#f00" stroke-miterlimit="10" fill="none"/><path d="M56.074 135.734l10.274-.16" stroke-width="1.2" stroke="#000" stroke-miterlimit="10" fill="none"/><path d="M41.8 130.395h8v11h-8zm0 0" fill="#fff"/><use xlink:href="#a" x="41.801" y="139.058" fill="#f00"/><path d="M68.46 136.75l5-8.977" stroke-width="1.2" stroke="#000" stroke-miterlimit="10" fill="none"/><path d="M73.46 127.773l4.997-8.976" stroke-width="1.2" stroke="#f00" stroke-miterlimit="10" fill="none"/><path d="M64.238 134.398l4.996-8.976" stroke-width="1.2" stroke="#000" stroke-miterlimit="10" fill="none"/><path d="M69.234 125.422l5-8.98" stroke-width="1.2" stroke="#f00" stroke-miterlimit="10" fill="none"/><path d="M66.348 135.574l10.554 17.637" stroke-width="1.2" stroke="#000" stroke-miterlimit="10" fill="none"/><path d="M72.348 112.12h8v11h-8zm0 0" fill="#fff"/><use xlink:href="#a" x="72.348" y="120.784" fill="#f00"/><path d="M76.902 153.21l20.547-.32M97.45 152.89l9.995-17.956M102.672 153.445l8-14.363M108 170.523L97.45 152.89M107.445 134.934l20.547-.32M127.992 134.613l10.55 17.637M124.898 138.86l8.442 14.11M138.543 152.25l10.137-1.69" stroke-width="1.2" stroke="#000" stroke-miterlimit="10" fill="none"/><path d="M148.68 150.56l10.136-1.693" stroke-width="1.2" stroke="#00f" stroke-miterlimit="10" fill="none"/><path d="M128.547 170.203l9.996-17.953" stroke-width="1.2" stroke="#000" stroke-miterlimit="10" fill="none"/><path d="M158.816 148.867l7.64 6.87" stroke-width="1.2" stroke="#00f" stroke-miterlimit="10" fill="none"/><path d="M166.457 155.738l7.64 6.87" stroke-width="1.2" stroke="#000" stroke-miterlimit="10" fill="none"/><path d="M151.816 143.367h14v11h-14zm0 0" fill="#fff"/><g fill="#00f"><use xlink:href="#b" x="151.816" y="152.03"/><use xlink:href="#c" x="158.794" y="152.03"/></g><path d="M174.098 162.61l18.37-9.204M178.098 166.012l14.7-7.364M172.88 183.125l1.218-20.516M192.47 153.406l17.16 11.31M209.63 164.715l-1.22 20.515M204.68 166.48l-.973 16.415M209.63 164.715l18.37-9.203M208.41 185.23l-18.37 9.204M190.04 194.434l-17.16-11.31M190.984 189.266l-13.726-9.047M172.88 183.125l-16.798 11.84M153.7 195.363l1.687 10.133" stroke-width="1.2" stroke="#000" stroke-miterlimit="10" fill="none"/><path d="M155.387 205.496l1.69 10.137" stroke-width="1.2" stroke="#f00" stroke-miterlimit="10" fill="none"/><path d="M158.47 194.566l1.686 10.137" stroke-width="1.2" stroke="#000" stroke-miterlimit="10" fill="none"/><path d="M160.156 204.703l1.692 10.133" stroke-width="1.2" stroke="#f00" stroke-miterlimit="10" fill="none"/><path d="M156.082 194.965l-9.863-2.875" stroke-width="1.2" stroke="#000" stroke-miterlimit="10" fill="none"/><path d="M146.22 192.09l-9.868-2.875" stroke-width="1.2" stroke="#00f" stroke-miterlimit="10" fill="none"/><path d="M155.46 209.734h8v11h-8zm0 0" fill="#fff"/><use xlink:href="#a" x="155.461" y="218.397" fill="#f00"/><path d="M136.352 189.215l-3.903-9.508" stroke-width="1.2" stroke="#00f" stroke-miterlimit="10" fill="none"/><path d="M132.45 179.707l-3.903-9.504" stroke-width="1.2" stroke="#000" stroke-miterlimit="10" fill="none"/><path d="M129.352 183.715h14v11h-14zm0 0" fill="#fff"/><g fill="#00f"><use xlink:href="#b" x="129.352" y="192.378"/><use xlink:href="#c" x="136.329" y="192.378"/></g><path d="M128.547 170.203l-20.547.32M126.418 165.402l-16.438.254M228 155.512l17.16 11.312M232.38 152.605l13.725 9.05M229.22 134.996L228 155.512M245.16 166.824l18.375-9.207M263.535 157.617l1.215-20.512M258.828 155.28l.973-16.41M264.75 137.105l-17.156-11.312M247.594 125.793l-18.375 9.203M247.922 131.04l-14.7 7.362M247.594 125.793l1.215-20.512M248.81 105.28l.608-10.257" stroke-width="1.2" stroke="#000" stroke-miterlimit="10" fill="none"/><path d="M249.418 95.023l.605-10.257" stroke-width="1.2" stroke="#00f" stroke-miterlimit="10" fill="none"/><path d="M253.758 103.516l.484-8.207" stroke-width="1.2" stroke="#000" stroke-miterlimit="10" fill="none"/><path d="M254.242 95.31l.488-8.208" stroke-width="1.2" stroke="#00f" stroke-miterlimit="10" fill="none"/><path d="M244.102 102.94l.488-8.206" stroke-width="1.2" stroke="#000" stroke-miterlimit="10" fill="none"/><path d="M244.59 94.734l.484-8.203" stroke-width="1.2" stroke="#00f" stroke-miterlimit="10" fill="none"/><path d="M247.023 79.266h7v11h-7zm0 0" fill="#fff"/><use xlink:href="#b" x="247.023" y="87.929" fill="#00f"/></g></svg>
